res/skins/LateNight/palemoon/buttons/btn__beatgrid_controls_expand.svg

<?xml version="1.0" encoding="UTF-8" standalone="no"?>
<svg
   xmlns:dc="http://purl.org/dc/elements/1.1/"
   xmlns:cc="http://creativecommons.org/ns#"
   xmlns:rdf="http://www.w3.org/1999/02/22-rdf-syntax-ns#"
   xmlns:svg="http://www.w3.org/2000/svg"
   xmlns="http://www.w3.org/2000/svg"
   id="svg16"
   version="1.1"
   height="52"
   width="26">
  <metadata
     id="metadata22">
    <rdf:RDF>
      <cc:Work
         rdf:about="">
        <dc:format>image/svg+xml</dc:format>
        <dc:type
           rdf:resource="http://purl.org/dc/dcmitype/StillImage" />
        <dc:title></dc:title>
      </cc:Work>
    </rdf:RDF>
  </metadata>
  <defs
     id="defs20" />
  <g
     style="fill:none;stroke:#000001;stroke-width:2.21497655;stroke-linejoin:round;stroke-miterlimit:4;stroke-dasharray:none;stroke-opacity:1"
     id="g4"
     transform="matrix(-0.5112,0.44559,-0.50559,-0.58003,28.908684,44.828444)">
    <path
       style="color:#000001;fill:none;stroke:#000001;stroke-width:1.61734033;stroke-linejoin:round;stroke-miterlimit:4;stroke-dasharray:none;stroke-opacity:1"
       id="path2"
       d="M 12,3 C 10.7163,3 9.666,4.0503 9.666,5.334 v 11.797 c -1.6125,0.8501 -2.7305,2.5239 -2.7305,4.4648 0,1.9422 1.1183,3.6174 2.7324,4.4668 V 22.867 c 0,-1.2837 1.0503,-2.334 2.334,-2.334 1.2837,0 2.332,1.0503 2.332,2.334 v 3.1956 c 1.6141,-0.84939 2.7324,-2.5246 2.7324,-4.4668 0,-1.9425 -1.1184,-3.6174 -2.7324,-4.4668 V 5.334 C 14.3339,4.0503 13.2836,3 11.9999,3 Z"
       transform="matrix(-1.4588,0,0,1.2857,27.506,3.1429)" />
  </g>
  <g
     style="fill:none;stroke:#000001;stroke-opacity:1"
     id="g986">
    <path
       style="fill:none;stroke:#000001;stroke-width:1.60000002;stroke-linejoin:round;stroke-miterlimit:4;stroke-dasharray:none;stroke-opacity:1"
       id="path6"
       d="m 8.9996834,37.363444 v 7.6375 h 1.9999996 v -5.3425 z" />
    <path
       style="fill:none;stroke:#000001;stroke-width:1.60000002;stroke-linejoin:round;stroke-miterlimit:4;stroke-dasharray:none;stroke-opacity:1"
       id="path8"
       d="m 13.999684,27.000445 v 5.9864 l 2,2.294899 v -8.281299 z" />
    <path
       style="fill:none;stroke:#000001;stroke-width:1.60000002;stroke-linejoin:round;stroke-miterlimit:4;stroke-dasharray:none;stroke-opacity:1"
       id="path10"
       d="m 18.999684,27.000445 v 11.724999 l 2,2.293 V 27.000445 Z" />
    <path
       style="fill:none;stroke:#000001;stroke-width:1.60000002;stroke-linejoin:round;stroke-miterlimit:4;stroke-dasharray:none;stroke-opacity:1"
       id="path12"
       d="m 3.9996834,35.713444 v 9.2874 h 2 v -7.9846 c -0.73826,-0.26909 -1.4212,-0.69782 -2,-1.3027 z" />
    <path
       style="fill:none;stroke:#000001;stroke-width:1.60000002;stroke-linejoin:round;stroke-opacity:1"
       d="M 11.648483,18.12022 7.2232242,13.695056 11.648483,9.2698911 10.542098,8.1636 5.0105479,13.695056 10.542098,19.226511 Z"
       id="path2-7" />
    <path
       style="fill:none;stroke:#000001;stroke-width:1.60000002;stroke-linejoin:round;stroke-opacity:1"
       d="m 14.351518,18.12022 4.425258,-4.425258 -4.425258,-4.4252589 1.106385,-1.1063851 5.531549,5.53155 -5.531549,5.531549 -1.106385,-1.106385 z"
       id="path4-5" />
  </g>
  <g
     id="g969">
    <path
       style="fill:#666668;fill-opacity:1"
       id="path6-5"
       d="m 8.9996834,37.363444 v 7.6375 h 1.9999996 v -5.3425 z" />
    <path
       style="fill:#666668;fill-opacity:1"
       id="path8-6"
       d="m 13.999684,27.000445 v 5.9864 l 2,2.294899 v -8.281299 z" />
    <path
       style="fill:#666668;fill-opacity:1"
       id="path10-2"
       d="m 18.999684,27.000445 v 11.724999 l 2,2.293 V 27.000445 Z" />
    <path
       style="fill:#666668;fill-opacity:1"
       id="path12-9"
       d="m 3.9996834,35.713444 v 9.2874 h 2 v -7.9846 c -0.73826,-0.26909 -1.4212,-0.69782 -2,-1.3027 z" />
    <path
       id="path10-6"
       d="M 11.648484,18.120221 7.2232252,13.695056 11.648484,9.2698917 10.542099,8.1636006 5.0105489,13.695056 10.542099,19.226512 Z"
       style="fill:#666668;fill-opacity:1;stroke-width:0.93992448" />
    <path
       id="path12-2"
       d="m 14.351519,18.120221 4.425258,-4.425259 -4.425258,-4.4252583 1.106385,-1.1063851 5.531549,5.5315494 -5.531549,5.53155 -1.106385,-1.106385 z"
       style="fill:#666668;fill-opacity:1;stroke-width:0.93992448" />
  </g>
  <g
     transform="matrix(-0.5112,0.44559,-0.50559,-0.58003,28.908684,44.828444)"
     id="g4-1"
     style="fill:#666668;fill-opacity:1;stroke-width:1.0108">
    <path
       transform="matrix(-1.4588,0,0,1.2857,27.506,3.1429)"
       d="M 12,3 C 10.7163,3 9.666,4.0503 9.666,5.334 v 11.797 c -1.6125,0.8501 -2.7305,2.5239 -2.7305,4.4648 0,1.9422 1.1183,3.6174 2.7324,4.4668 V 22.867 c 0,-1.2837 1.0503,-2.334 2.334,-2.334 1.2837,0 2.332,1.0503 2.332,2.334 v 3.1956 c 1.6141,-0.84939 2.7324,-2.5246 2.7324,-4.4668 0,-1.9425 -1.1184,-3.6174 -2.7324,-4.4668 V 5.334 C 14.3339,4.0503 13.2836,3 11.9999,3 Z"
       id="path2-2"
       style="color:#000001;fill:#666668;fill-opacity:1" />
  </g>
</svg>

<svg width="26" height="52" version="1.1" xmlns="http://www.w3.org/2000/svg">
  <g transform="matrix(-.5112 .44559 -.50559 -.58003 28.909 44.828)" fill="none" stroke="#000001" stroke-linejoin="round" stroke-width="2.215">
    <path transform="matrix(-1.4588,0,0,1.2857,27.506,3.1429)" d="m12 3c-1.2837 0-2.334 1.0503-2.334 2.334v11.797c-1.6125 0.8501-2.7305 2.5239-2.7305 4.4648 0 1.9422 1.1183 3.6174 2.7324 4.4668v-3.1956c0-1.2837 1.0503-2.334 2.334-2.334s2.332 1.0503 2.332 2.334v3.1956c1.6141-0.84939 2.7324-2.5246 2.7324-4.4668 0-1.9425-1.1184-3.6174-2.7324-4.4668v-11.795c0-1.2837-1.0503-2.334-2.334-2.334z" color="#000001" fill="none" stroke="#000001" stroke-linejoin="round" stroke-width="1.6173"/>
  </g>
  <g fill="none" stroke="#000001" stroke-linejoin="round" stroke-width="1.6">
    <path d="m8.9997 37.363v7.6375h2v-5.3425z"/>
    <path d="m14 27v5.9864l2 2.2949v-8.2813z"/>
    <path d="m19 27v11.725l2 2.293v-14.018z"/>
    <path d="m3.9997 35.713v9.2874h2v-7.9846c-0.73826-0.26909-1.4212-0.69782-2-1.3027z"/>
    <path d="m11.648 18.12-4.4253-4.4252 4.4253-4.4252-1.1064-1.1063-5.5316 5.5315 5.5316 5.5315z"/>
    <path d="m14.352 18.12 4.4253-4.4253-4.4253-4.4253 1.1064-1.1064 5.5315 5.5316-5.5315 5.5315-1.1064-1.1064z"/>
  </g>
  <g fill="#666668">
    <path d="m8.9997 37.363v7.6375h2v-5.3425z"/>
    <path d="m14 27v5.9864l2 2.2949v-8.2813z"/>
    <path d="m19 27v11.725l2 2.293v-14.018z"/>
    <path d="m3.9997 35.713v9.2874h2v-7.9846c-0.73826-0.26909-1.4212-0.69782-2-1.3027z"/>
    <path d="m11.648 18.12-4.4253-4.4252 4.4253-4.4252-1.1064-1.1063-5.5316 5.5315 5.5316 5.5315z" stroke-width=".93992"/>
    <path d="m14.352 18.12 4.4253-4.4253-4.4253-4.4253 1.1064-1.1064 5.5315 5.5315-5.5315 5.5316-1.1064-1.1064z" stroke-width=".93992"/>
  </g>
  <g transform="matrix(-.5112 .44559 -.50559 -.58003 28.909 44.828)" fill="#666668" stroke-width="1.0108">
    <path transform="matrix(-1.4588,0,0,1.2857,27.506,3.1429)" d="m12 3c-1.2837 0-2.334 1.0503-2.334 2.334v11.797c-1.6125 0.8501-2.7305 2.5239-2.7305 4.4648 0 1.9422 1.1183 3.6174 2.7324 4.4668v-3.1956c0-1.2837 1.0503-2.334 2.334-2.334s2.332 1.0503 2.332 2.334v3.1956c1.6141-0.84939 2.7324-2.5246 2.7324-4.4668 0-1.9425-1.1184-3.6174-2.7324-4.4668v-11.795c0-1.2837-1.0503-2.334-2.334-2.334z" color="#000001" fill="#666668"/>
  </g>
</svg>
